X: 14242
T: Furry Flats
R: jig
M: 6/8
K: Dmajor
A3 DEF|G2A d2c|A3 DEA|G2F AFD|
A3 BAF|G2A d2c|d2c A2D|1 B2A Bcd:|2 B3 B2c||
|:d2c A2D|B2A Bcd|f2e d2B|e3efe|
d2c A2D|B2A Bcd|G2F AFD|1 E3 E2c:|2 E3 EED||

